X: 7
T:Marcha Celta (o gallega)
M:6/8
L:1/8
Q:200
C:Trad
R:Marcha
B:Os Segredos da Gaita. FOXO
K:C
CF |: AFA AGF |"tr."D2C CDE | "tr."D2C CDE |
"tr."D2C- CCF | AFA AGF | "tr."D2C CDE | "tr."D2C CDE |1
F3- FCF :|2 |:F3 G2F | EDC  c2 _B | AGF G2F | EDC c2_B |
A3 G2F | EDC CDE |F3 G2F | EDC c2_B | A3 _B3 |
c3 D3 | c3 D3 | c3 _B3 | AGF A2_B | c3 D3 |c3 D3 |
cDc _BAG |1  F3- FCF :|2 F ||

